!!!SOCIAL_FUNCTION:	klokali songs
!!!PDT:	1939
!!!OTL: No_41_Klokali_Song_Learned_From_a_Slave_(a).krn
!!!LANG: Non-Tone
!!!LING_GROUP: Wakashan
!!!REG: Pacific Northwest
**kern
*staff1
=1-
*clefF4
*k[b-]
*M2/4
4r
4G\
=2!|:
16B-\LK
[8.A\J
4A\_
=3||
*M3/4
4A\]
4G\
16A\LL
16G\
16.F\
32F\JJk
=4
8.F\L
16G\Jk
4F\
8F\
8r
=5
8.A\L
16A\Jk
8.A\L
16G\Jk
12A\L
8G\
24F\Jk
=6
*M2/4
4F\
4F\
=7||
*M3/4
4.A-\
8A-\
12A-\L
12G\
12F\J
=8||
*M2/4
8.F\L
16F\Jk
8.F\L
16G\Jk
=9||
*M3/4
[2F\
8.F\L]
16G\Jk
=10||
*M2/4
8F\
8r
4F\
=11
[2F\
=12
4F\]
8A-\
8r
=13
4r
4A-\
=14||
*M3/4
[2B-\
16.B-\LL]
32c-\K
16B-\
16A-\JJ
=15||
*M2/4
8B-\L
8An\J
8.G\L
16F\Jk
=16||
*M3/4
4F\
4F\
8F\
8r
=17
8.A\L
16A\Jk
8.A\L
16G\Jk
16A\LL
16G\
16.F\
32F\JJk
=18||
*M2/4
4F\
8F\
8r
=19||
*M3/4
4.A-\
8A-\
12A-\L
12G\
12F\J
=20||
*M2/4
8.F\L
16F\Jk
8.F\L
16G\Jk
=21
4F\
4r
=22||
*M3/4
8r
8G\
8F\
8r
4F\
=23
8.F\L
16A-\Jk
8A-\
8r
4A-\
=24:|!
8.F\L
16A-\Jk
8A-\
8r
4r
==
*-
